X: 1460
T: the Ladies of Leinster   #2
R: reel
%S: s:2 b:13(7+6)
%S: s:4 b:16(4+4+4+4)
B: O'Neill's 1850 #1460
O: Dunphy
Z: Bob Safranek, rjs@gsp.org
N: Compacted via repeats and multiple endings [JC]
M: C|
L: 1/8
K: G
"^A"[|] (dc) \
|: BGGB d2(cB) | ADDE FGAc | BGGB d2(cB) |[1 cdeg fdcA :|[2 cdef g2 "^B"|[| d2 | gfdB GBdB |
| Aaag fedc | Bdgf edcB | cdef g2 || dB | G2gf edcB | ADDE F2GA | BGGB cAAg | fdef g2 |]
